X: 1
T: Mind Your Other Leg
M: 12/8
L: 1/8
R: slide
K: Gmaj
|:G2 B BAB G2E E2 D|F2 A ABA F2 D DEF|G2 B BAB GBd g2 e|1 d2 B BAB G2 E E2 D:|2 d2 B BAB G2 E Ege||
d2 B Bge d2 B Bge|d2 B BAB G2E Ege|d2 B Bge d2 B B2 d|efg fed e3 e2 f|
g2 e f2 d e2 d B2d|efg fed e3 e2 f|g2 e f2 d e2 d B2d|efg fed e3 g3||
